X: 35666
T: Sailor's Jacket, The
R: reel
M: 4/4
K: Dmixolydian
dfec A2AB|cdef gfge|dfec A2AB|cBcG EDD2|
dfec A2AB|cdef ~g2ge|dfec A2AB|cBcG EDD2||
d2fd adfd|c2ec gcec|d2fd adfd|eaag edd^c|
defg afed|cdef g2fg|agfe fddf|eaag edd^c||

